svg/fluentui-system-icons/ic_fluent_window_dev_edit_16_regular.svg

<svg width="17" height="16" viewBox="0 0 17 16" fill="none" xmlns="http://www.w3.org/2000/svg">
<path d="M2 4.50098C2 3.12026 3.11929 2.00098 4.5 2.00098H10.5C11.8807 2.00098 13 3.12026 13 4.50098V6.44137C12.8699 6.53015 12.7462 6.63225 12.6308 6.74768L12 7.37848V4.99977H3V10.501C3 11.3294 3.67157 12.001 4.5 12.001H7.6433C7.51656 12.2513 7.41756 12.5162 7.34889 12.7908L7.29635 13.001H4.5C3.11929 13.001 2 11.8817 2 10.501V4.50098ZM4.49863 2.99976C3.84552 2.99976 3.2899 3.41716 3.08398 3.99976H11.9133C11.7074 3.41716 11.1517 2.99976 10.4986 2.99976H4.49863ZM10.9878 8.39073L8.38994 10.9885C8.30071 10.9685 8.2159 10.9237 8.14645 10.8543C7.95118 10.659 7.95118 10.3424 8.14645 10.1472L9.79289 8.50074L8.14645 6.85429C7.95118 6.65902 7.95118 6.34244 8.14645 6.14718C8.34171 5.95192 8.65829 5.95192 8.85355 6.14718L10.8536 8.14718C10.9209 8.21457 10.9671 8.29921 10.9878 8.39073ZM6.85294 6.85429C7.04821 6.65902 7.04821 6.34244 6.85294 6.14718C6.65768 5.95192 6.3411 5.95192 6.14584 6.14718L4.14584 8.14718C4.05207 8.24095 3.99939 8.36813 3.99939 8.50074C3.99939 8.63334 4.05207 8.76052 4.14584 8.85429L6.14584 10.8543C6.3411 11.0495 6.65768 11.0495 6.85294 10.8543C7.04821 10.659 7.04821 10.3424 6.85294 10.1472L5.2065 8.50074L6.85294 6.85429ZM15.5446 7.45479C14.9351 6.84531 13.947 6.84531 13.3375 7.45479L9.04911 11.7432C8.69319 12.0991 8.44069 12.545 8.31861 13.0334L8.01582 14.2445C7.90424 14.6909 8.30853 15.0951 8.75486 14.9836L9.96602 14.6808C10.4543 14.5587 10.9003 14.3062 11.2562 13.9503L15.5446 9.66189C16.1541 9.05242 16.1541 8.06426 15.5446 7.45479Z" fill="#212121"/>
</svg>

<svg xmlns="http://www.w3.org/2000/svg" width="17" height="16"><path d="M2 4.501a2.5 2.5 0 0 1 2.5-2.5h6a2.5 2.5 0 0 1 2.5 2.5v1.94c-.13.09-.254.191-.37.307l-.63.63V5H3v5.5A1.5 1.5 0 0 0 4.5 12h3.143c-.126.25-.225.515-.294.79l-.053.21H4.5A2.5 2.5 0 0 1 2 10.5v-6ZM4.499 3a1.5 1.5 0 0 0-1.415 1h8.83a1.5 1.5 0 0 0-1.415-1h-6Zm6.489 5.39L8.39 10.989a.5.5 0 0 1-.243-.841l1.646-1.646-1.647-1.647a.5.5 0 1 1 .708-.707l2 2a.501.501 0 0 1 .134.244ZM6.853 6.855a.5.5 0 1 0-.707-.707l-2 2a.5.5 0 0 0 0 .707l2 2a.5.5 0 0 0 .707-.707L5.207 8.501l1.646-1.647Zm8.692.6a1.56 1.56 0 0 0-2.207 0l-4.289 4.29a2.777 2.777 0 0 0-.73 1.29l-.303 1.21a.61.61 0 0 0 .739.74l1.211-.303a2.778 2.778 0 0 0 1.29-.73l4.289-4.29a1.56 1.56 0 0 0 0-2.206Z"/></svg>
